data/tilesets/flags/unknown.svg

<?xml version="1.0" encoding="UTF-8" standalone="no"?>
<!-- Created with Sodipodi ("http://www.sodipodi.com/") -->

<svg
   id="svg1350"
   sodipodi:version="0.32"
   width="281.25pt"
   height="187.5pt"
   sodipodi:docname="unknown.svg"
   inkscape:version="1.1.2 (0a00cf5339, 2022-02-04)"
   inkscape:output_extension="org.inkscape.output.svg.inkscape"
   version="1.1"
   xmlns:inkscape="http://www.inkscape.org/namespaces/inkscape"
   xmlns:sodipodi="http://sodipodi.sourceforge.net/DTD/sodipodi-0.dtd"
   xmlns="http://www.w3.org/2000/svg"
   xmlns:svg="http://www.w3.org/2000/svg"
   xmlns:rdf="http://www.w3.org/1999/02/22-rdf-syntax-ns#"
   xmlns:cc="http://creativecommons.org/ns#"
   xmlns:dc="http://purl.org/dc/elements/1.1/">
  <defs
     id="defs1352">
    <defs
       id="defs5117" />
    <sodipodi:namedview
       id="namedview5116"
       pagecolor="#ffffff"
       bordercolor="#666666"
       borderopacity="1.0"
       inkscape:pageshadow="2"
       inkscape:pageopacity="0.0"
       inkscape:pagecheckerboard="0"
       inkscape:document-units="pt" />
  </defs>
  <sodipodi:namedview
     id="base"
     showgrid="false"
     borderlayer="top"
     bordercolor="#000000"
     borderopacity="1"
     inkscape:zoom="1.8266667"
     inkscape:cx="189.9635"
     inkscape:cy="129.19708"
     inkscape:window-width="841"
     inkscape:window-height="657"
     inkscape:window-x="523"
     inkscape:window-y="84"
     inkscape:current-layer="svg1350"
     inkscape:window-maximized="0" />
  <rect
     style="font-size:12px;fill:#32cbfe;fill-opacity:1;fill-rule:evenodd"
     id="rect625"
     x="0"
     y="0"
     height="250"
     width="375" />
  <metadata
     id="metadata17">
    <rdf:RDF>
      <cc:Work
         rdf:about="">
        <dc:format>image/svg+xml</dc:format>
        <dc:type
           rdf:resource="http://purl.org/dc/dcmitype/StillImage" />
      </cc:Work>
    </rdf:RDF>
  </metadata>
  <path
     style="fill:#000000;fill-opacity:1;stroke:none;stroke-width:0.999982pt;stroke-linecap:butt;stroke-linejoin:miter;stroke-opacity:1"
     d="M 53.217734,180.34375 47.858552,208.125 H 25.656226 l 5.359182,-27.78125 z M 29.046729,54.234375 c 7.437194,-4.156092 14.856189,-7.255047 22.257012,-9.296875 7.400714,-2.041501 14.965538,-3.062334 22.694495,-3.0625 11.739072,1.66e-4 20.999146,2.734539 27.780254,8.203125 6.78089,5.468903 10.17139,12.906395 10.17151,22.3125 -1.2e-4,7.510545 -1.95057,14.546996 -5.85136,21.109375 -3.901,6.56261 -10.262747,13.41677 -19.085248,20.5625 l -11.37459,9.1875 c -6.124852,4.81258 -10.208034,8.93237 -12.249559,12.35938 -2.041658,3.42715 -3.718678,8.49485 -5.031069,15.20312 l -2.734277,13.45313 H 34.843396 l 3.390503,-16.84375 c 1.31241,-6.8541 3.390458,-12.6692 6.23415,-17.44532 2.843598,-4.77596 8.312146,-10.51814 16.405659,-17.22656 l 11.593333,-9.73437 C 78.59174,97.911569 82.893664,93.427198 85.372826,89.5625 87.851813,85.698039 89.091351,81.687626 89.091443,77.53125 89.091351,71.989719 87.104445,67.651182 83.13072,64.515625 79.156822,61.380355 73.670047,59.812648 66.670375,59.8125 60.837188,59.812648 54.329616,61.106918 47.147641,63.695313 39.965564,66.283996 32.583025,69.984513 25,74.796875 Z M 172.21345,180.34375 166.85427,208.125 h -22.20233 l 5.35919,-27.78125 z m -24.171,-126.109375 c 7.43719,-4.156092 14.85619,-7.255047 22.25701,-9.296875 7.40071,-2.041501 14.96553,-3.062334 22.69449,-3.0625 11.73908,1.66e-4 20.99915,2.734539 27.78025,8.203125 6.7809,5.468903 10.1714,12.906395 10.17152,22.3125 -1.2e-4,7.510545 -1.95057,14.546996 -5.85136,21.109375 -3.901,6.56261 -10.26275,13.41677 -19.08525,20.5625 l -11.37459,9.1875 c -6.12486,4.81258 -10.20804,8.93237 -12.24956,12.35938 -2.04166,3.42715 -3.71868,8.49485 -5.03106,15.20312 l -2.73429,13.45313 h -20.7805 l 3.39051,-16.84375 c 1.3124,-6.8541 3.39046,-12.6692 6.23415,-17.44532 2.84359,-4.77596 8.31214,-10.51814 16.40565,-17.22656 l 11.59334,-9.73437 c 6.1247,-5.104061 10.42662,-9.588432 12.90578,-13.45313 2.47899,-3.864461 3.71853,-7.874874 3.71862,-12.03125 -9e-5,-5.541531 -1.987,-9.880068 -5.96073,-13.015625 -3.97389,-3.13527 -9.46067,-4.702977 -16.46033,-4.703125 -5.83319,1.48e-4 -12.34077,1.294418 -19.52274,3.882813 -7.18208,2.588683 -14.56462,6.2892 -22.14764,11.101562 z M 291.20917,180.34375 285.84999,208.125 h -22.20233 l 5.35919,-27.78125 z m -24.171,-126.109375 c 7.43719,-4.156092 14.85618,-7.255047 22.257,-9.296875 7.40072,-2.041501 14.96554,-3.062334 22.6945,-3.0625 11.73908,1.66e-4 20.99914,2.734539 27.78025,8.203125 6.78089,5.468903 10.17139,12.906395 10.17151,22.3125 -1.2e-4,7.510545 -1.95057,14.546996 -5.85136,21.109375 -3.901,6.56261 -10.26275,13.41677 -19.08524,20.5625 l -11.37459,9.1875 c -6.12486,4.81258 -10.20804,8.93237 -12.24956,12.35938 -2.04167,3.42715 -3.71869,8.49485 -5.03107,15.20312 l -2.73428,13.45313 h -20.7805 l 3.39051,-16.84375 c 1.3124,-6.8541 3.39045,-12.6692 6.23414,-17.44532 2.8436,-4.77596 8.31214,-10.51814 16.40566,-17.22656 l 11.59333,-9.73437 c 6.1247,-5.104061 10.42663,-9.588432 12.90579,-13.45313 2.47899,-3.864461 3.71852,-7.874874 3.71861,-12.03125 -9e-5,-5.541531 -1.98699,-9.880068 -5.96072,-13.015625 -3.9739,-3.13527 -9.46067,-4.702977 -16.46034,-4.703125 -5.83319,1.48e-4 -12.34076,1.294418 -19.52274,3.882813 -7.18208,2.588683 -14.56461,6.2892 -22.14764,11.101562 z"
     id="text912" />
</svg>

<?xml version="1.0" encoding="UTF-8" standalone="no"?>
<!-- Created with Sodipodi ("http://www.sodipodi.com/") -->
<svg
   xmlns:dc="http://purl.org/dc/elements/1.1/"
   xmlns:cc="http://web.resource.org/cc/"
   xmlns:rdf="http://www.w3.org/1999/02/22-rdf-syntax-ns#"
   xmlns:svg="http://www.w3.org/2000/svg"
   xmlns="http://www.w3.org/2000/svg"
   xmlns:sodipodi="http://sodipodi.sourceforge.net/DTD/sodipodi-0.dtd"
   xmlns:inkscape="http://www.inkscape.org/namespaces/inkscape"
   id="svg1350"
   sodipodi:version="0.32"
   width="300.00000pt"
   height="200.00000pt"
   sodipodi:docname="unknown.svg"
   inkscape:version="0.45.1"
   sodipodi:docbase="C:\freeciv"
   inkscape:output_extension="org.inkscape.output.svg.inkscape">
  <defs
     id="defs1352">
    <defs
       id="defs5117" />
    <sodipodi:namedview
       id="namedview5116" />
  </defs>
  <sodipodi:namedview
     id="base"
     showgrid="false"
     borderlayer="top"
     bordercolor="#000000"
     borderopacity="1"
     inkscape:zoom="1.8266667"
     inkscape:cx="150"
     inkscape:cy="99.999994"
     inkscape:window-width="1028"
     inkscape:window-height="766"
     inkscape:window-x="87"
     inkscape:window-y="95"
     inkscape:current-layer="svg1350" />
  <rect
     style="font-size:12.000000;fill:#32cbfe;fill-opacity:1.0000000;fill-rule:evenodd;"
     id="rect625"
     x="0.0000000"
     y="0.0000000"
     height="250.00000"
     width="375.00000" />
  <metadata
     id="metadata17">
    <rdf:RDF>
      <cc:Work
         rdf:about="">
        <dc:format>image/svg+xml</dc:format>
        <dc:type
           rdf:resource="http://purl.org/dc/dcmitype/StillImage" />
      </cc:Work>
    </rdf:RDF>
  </metadata>
  <path
     transform="scale(0.999964,1.000000)"
     style="fill:#000000;fill-opacity:1;stroke:none;stroke-width:1pt;stroke-linecap:butt;stroke-linejoin:miter;stroke-opacity:1"
     d="M 53.21965,180.34375 L 47.860275,208.125 L 25.65715,208.125 L 31.016525,180.34375 L 53.21965,180.34375 z M 29.047775,54.234375 C 36.485236,50.078283 43.904499,46.979328 51.305588,44.9375 C 58.706568,42.895999 66.271665,41.875166 74.0009,41.875 C 85.740395,41.875166 95.000802,44.609539 101.78215,50.078125 C 108.56329,55.547028 111.95391,62.98452 111.95403,72.390625 C 111.95391,79.90117 110.00339,86.937621 106.10246,93.5 C 102.20132,100.06261 95.839343,106.91677 87.016525,114.0625 L 75.641525,123.25 C 69.516453,128.06258 65.433124,132.18237 63.391525,135.60938 C 61.349794,139.03653 59.672713,144.10423 58.360275,150.8125 L 55.6259,164.26563 L 34.84465,164.26563 L 38.235275,147.42188 C 39.547733,140.56778 41.625856,134.75268 44.46965,129.97656 C 47.31335,125.2006 52.782095,119.45842 60.8759,112.75 L 72.46965,103.01563 C 78.594569,97.911569 82.896648,93.427198 85.3759,89.5625 C 87.854976,85.698039 89.094558,81.687626 89.09465,77.53125 C 89.094558,71.989719 87.107581,67.651182 83.133713,64.515625 C 79.159672,61.380355 73.672699,59.812648 66.672775,59.8125 C 60.839378,59.812648 54.331572,61.106918 47.149338,63.695313 C 39.967003,66.283996 32.584198,69.984513 25.0009,74.796875 L 29.047775,54.234375 z M 172.21965,180.34375 L 166.86028,208.125 L 144.65715,208.125 L 150.01653,180.34375 L 172.21965,180.34375 z M 148.04778,54.234375 C 155.48524,50.078283 162.9045,46.979328 170.30559,44.9375 C 177.70657,42.895999 185.27166,41.875166 193.0009,41.875 C 204.7404,41.875166 214.0008,44.609539 220.78215,50.078125 C 227.56329,55.547028 230.95391,62.98452 230.95403,72.390625 C 230.95391,79.90117 229.00339,86.937621 225.10246,93.5 C 221.20132,100.06261 214.83934,106.91677 206.01653,114.0625 L 194.64153,123.25 C 188.51645,128.06258 184.43312,132.18237 182.39153,135.60938 C 180.34979,139.03653 178.67271,144.10423 177.36028,150.8125 L 174.6259,164.26563 L 153.84465,164.26563 L 157.23528,147.42188 C 158.54773,140.56778 160.62586,134.75268 163.46965,129.97656 C 166.31335,125.2006 171.78209,119.45842 179.8759,112.75 L 191.46965,103.01563 C 197.59457,97.911569 201.89665,93.427198 204.3759,89.5625 C 206.85498,85.698039 208.09456,81.687626 208.09465,77.53125 C 208.09456,71.989719 206.10758,67.651182 202.13371,64.515625 C 198.15967,61.380355 192.6727,59.812648 185.67278,59.8125 C 179.83938,59.812648 173.33157,61.106918 166.14934,63.695313 C 158.967,66.283996 151.5842,69.984513 144.0009,74.796875 L 148.04778,54.234375 z M 291.21965,180.34375 L 285.86028,208.125 L 263.65715,208.125 L 269.01653,180.34375 L 291.21965,180.34375 z M 267.04778,54.234375 C 274.48524,50.078283 281.9045,46.979328 289.30559,44.9375 C 296.70657,42.895999 304.27166,41.875166 312.0009,41.875 C 323.7404,41.875166 333.0008,44.609539 339.78215,50.078125 C 346.56329,55.547028 349.95391,62.98452 349.95403,72.390625 C 349.95391,79.90117 348.00339,86.937621 344.10246,93.5 C 340.20132,100.06261 333.83934,106.91677 325.01653,114.0625 L 313.64153,123.25 C 307.51645,128.06258 303.43312,132.18237 301.39153,135.60938 C 299.34979,139.03653 297.67271,144.10423 296.36028,150.8125 L 293.6259,164.26563 L 272.84465,164.26563 L 276.23528,147.42188 C 277.54773,140.56778 279.62586,134.75268 282.46965,129.97656 C 285.31335,125.2006 290.78209,119.45842 298.8759,112.75 L 310.46965,103.01563 C 316.59457,97.911569 320.89665,93.427198 323.3759,89.5625 C 325.85498,85.698039 327.09456,81.687626 327.09465,77.53125 C 327.09456,71.989719 325.10758,67.651182 321.13371,64.515625 C 317.15967,61.380355 311.6727,59.812648 304.67278,59.8125 C 298.83938,59.812648 292.33157,61.106918 285.14934,63.695313 C 277.967,66.283996 270.5842,69.984513 263.0009,74.796875 L 267.04778,54.234375 z "
     id="text912" />
</svg>
